docs/public/favicon-dark.svg

<svg width="178" height="178" viewBox="0 0 178 178" fill="none" xmlns="http://www.w3.org/2000/svg">
<rect width="178" height="178" fill="white"/>
<path fill-rule="evenodd" clip-rule="evenodd" d="M178 178H0V0H178V178Z" fill="black"/>
<path d="M58.2683 51.1115C58.6089 50.0871 59.567 49.3954 60.6469 49.3954H136.216C137.116 49.3954 137.753 50.2773 137.468 51.1326L129.819 74.0819C129.478 75.1062 128.519 75.798 127.439 75.798H105.18C104.1 75.798 103.142 76.4897 102.801 77.5141L86.3416 126.889C86.001 127.913 85.0429 128.605 83.963 128.605H60.1428C59.2425 128.605 58.606 127.723 58.8912 126.868L75.3344 77.5372C75.6193 76.6819 74.9831 75.7999 74.0829 75.7999H51.8705C50.9702 75.7999 50.3338 74.918 50.6188 74.0626L58.2683 51.1115Z" fill="white"/>
</svg>

<svg xmlns="http://www.w3.org/2000/svg" width="178" height="178" fill="none" viewBox="0 0 178 178"><path fill="#000" d="M0 0h178v178H0z"/><path fill="#fff" fill-rule="evenodd" d="M178 178H0V0h178z" clip-rule="evenodd"/><path fill="#000" d="M58.268 51.112a2.51 2.51 0 0 1 2.379-1.717h75.569c.9 0 1.537.882 1.252 1.738l-7.649 22.949a2.51 2.51 0 0 1-2.38 1.716H105.18c-1.08 0-2.038.692-2.379 1.716l-16.46 49.375a2.51 2.51 0 0 1-2.378 1.716h-23.82a1.32 1.32 0 0 1-1.252-1.737l16.443-49.33a1.32 1.32 0 0 0-1.251-1.738H51.87a1.32 1.32 0 0 1-1.252-1.737z"/></svg>
